!!!COM: Music21
!!!OTL: mazurka_Aggies
!!!OMV: mazurka_Aggies
**kern
*clefG2
*k[f#c#]
*D:
*M3/4
=1
8a
12aL
12b
12cc#J
=
4dd
8.ddL
16cc#Jk
8.ddL
16eeJk
=
12ff#L
12gg
12ff#J
8.ddL
16aJk
8.f#L
16gJk
=
12aL
12b
12aJ
8.aL
16f#Jk
8.aL
16bJk
=
8.bL
16aJk
8.gL
16f#Jk
8.eL
16bJk
=
4ee
8.eeL
16dd#XJk
8.eeL
16ff#Jk
!!linebreak:original
=
8.ggL
16ff#Jk
8.eeL
16ddJk
8.ddL
16cc#Jk
=
12cc#L
12dd
12cc#J
4b
4g
=
4b
8.aL
16gJk
8.f#L
16aJk
=
4dd
8.ddL
16cc#Jk
8.ddL
16eeJk
=
4ff#
8.ddL
16aJk
8.f#L
16gJk
=
4a
8.aL
16f#Jk
8.aL
16bJk
!!linebreak:original
=
8.bL
16aJk
8.gL
16f#Jk
8.eL
16d#XJk
=
4ee
8.eeL
16dd#XJk
8.eeL
16ff#Jk
=
8.ggL
16ff#Jk
8.eeL
16ddJk
8.ddL
16cc#Jk
=
12aL
12b
12aJ
4b
4cc#
=
4dd
8.dd
4ryy
16ryy
=||
*M3/4
8a
12aL
12b
12cc#J
!!linebreak:original
=
4dd
8.ddL
16cc#Jk
8.ddL
16eeJk
=
12ff#L
12gg
12ff#J
8.ddL
16aJk
8.f#L
16gJk
=
12aL
12b
12aJ
8.aL
16f#Jk
8.aL
16bJk
=
8.bL
16aJk
8.gL
16f#Jk
8.eL
16bJk
=
4ee
8.eeL
16dd#XJk
8.eeL
16ff#Jk
!!linebreak:original
=
8.ggL
16ff#Jk
8.eeL
16ddJk
8.ddL
16cc#Jk
=
12cc#L
12dd
12cc#J
4b
4g
=
4b
8.aL
16gJk
8.f#L
16aJk
=
4dd
8.ddL
16cc#Jk
8.ddL
16eeJk
=
4ff#
8.ddL
16aJk
8.f#L
16gJk
=
4a
8.aL
16f#Jk
8.aL
16bJk
!!linebreak:original
=
8.bL
16aJk
8.gL
16f#Jk
8.eL
16d#XJk
=
4ee
8.eeL
16dd#XJk
8.eeL
16ff#Jk
=
8.ggL
16ff#Jk
8.eeL
16ddJk
8.ddL
16cc#Jk
=
12aL
12b
12aJ
4b
4cc#
=
4dd
8.dd
4ryy
16ryy
=||
16ee
8.ff#
16gg
4..ryy
!!linebreak:original
=
12ff#L
12gg
12ff#J
4dd
8.ff#L
16ggJk
=
12ff#L
12gg
12ff#J
4dd
8.ff#L
16ggJk
=
4aa
8.aaL
16ff#Jk
8.ggL
16ff#Jk
=
12eeL
12ff#
12eeJ
8.eeL
16dd#XJk
8.eeL
16ff#Jk
=
12eeL
12ff#
12eeJ
4cc#
8.eeL
16ff#Jk
=
12eeL
12ff#
12eeJ
4a
8.eeL
16ff#Jk
!!linebreak:original
=
4gg
8.ggL
16eeJk
8.ff#L
16eeJk
=
[4dd
8.dd]
4ryy
16ryy
=||
16ee
8.ff#
16gg
4..ryy
=
12ff#L
12gg
12ff#J
4dd
8.ff#L
16ggJk
=
12ff#L
12gg
12ff#J
4dd
8.ff#L
16ggJk
=
4aa
8.aaL
16ff#Jk
8.ggL
16ff#Jk
!!linebreak:original
=
12eeL
12ff#
12eeJ
8.eeL
16dd#XJk
8.eeL
16ff#Jk
=
12eeL
12ff#
12eeJ
4cc#
8.eeL
16ff#Jk
=
12eeL
12ff#
12eeJ
4a
8.eeL
16ff#Jk
=
4gg
8.ggL
16eeJk
8.ff#L
16eeJk
=
[4dd
8.dd]
4ryy
16ryy
=||
*-
